X:1
T:All Will Be Well
T:All Will Be Well
T:Arthur W. McKee
T:Frances Jane (Fanny) Crosby, 1915
T:Public Domain Courtesy of the Cyber Hymnal™
T:Public Domain Courtesy of the Cyber Hymnal™
C:Arthur W. McKee
Z:Public Domain
Z:Courtesy of the Cyber Hymnal™
%%score ( 1 2 ) ( 3 4 )
L:1/8
Q:1/4=147
M:3/4
K:G
V:1 treble 
V:2 treble 
V:3 bass 
V:4 bass 
V:1
 [B,D]2 [B,G]2 [CA]2 | [DB]2 [DB]2 [B,G]2 | [CE]2 [EG]2 [_EA]2 | [DB]6 | [CA]2 [B,^G]2 [CA]2 | %5
w: 1.~On- ly Thy|pre- sence, O|Sav- ior di-|vine,|On- ly Thy|
w: 2.~On- ly Thy|pre- sence to|lead me a-|right,|Out of the|
w: 3.~On- ly Thy|pre- sence when|tri- als I|bear,|Lift- ing so|
w: 4.~On- ly Thy|pre- sence when|wild is the|gale,|On- ly Thy|
 [CD]2 [CF]2 [CE]2 | [B,D]2 [B,G]2 [Ec]2 | [DB]6 | [B,D]2 [B,G]2 [CA]2 | [DB]2 [GB]2 [FB]2 | %10
w: Spir- it to|wit- ness with|mine;|On- ly Thine|im- age of|
w: dark- ness and|in- to the|light;|On- ly a|whis- per to|
w: gent- ly my|bur- den of|care;|On- ly Thy|pre- sence to|
w: pre- sence when|rent is my|sail;|On- ly Thy|pre- sence my|
 [=Fd]2 [FB]2 [FG]2 | [Ge]6 | [ce]2 [Bd]2 [Ac]2 | [GB]2 [Bd]3 [Bd] | [Ac]2 B2 [CA]2 | [B,G]6 || %16
w: love on my|breast,|Seal of for-|give- ness, as-|sur- ance of|rest.|
w: tell Thou art|near,|On- ly Thy|sun- shine to|ban- ish my|fear.|
w: show me the|way,|Home to the|man- sions of|in- fi- nite|day.|
w: ves- sel to|guide|In- to the|har- bor and|o- ver the|tide.|
"^Refrain" [Fd]2 [FA]2 [FB]2 | [Fc]2 [FB]2 [DA]2 | [DG]2 G2 [Gc]2 | [GB]6 | [FA]2 [^E^G]2 [FA]2 | %21
w: |||||
w: What tho’ the|bil- lows like|mount- ains may|swell;|All will be|
w: |||||
w: |||||
 [Ad]4 [Fc]2 | [Gc]2 [GB]2 [E^A]2 | [DB]6 | [Fd]2 [FA]2 [FB]2 | [Fc]2 [FB]2 [DA]2 | %26
w: |||||
w: well; yes,|all will be|well;|Un- der Thy|sha- dow in|
w: |||||
w: |||||
 [DG]2 G2 [Gc]2 | [GB]6 | [Fd]6 | [Fc]3 [FB] [DA]2 | [DG]6- | [DG]4 z2 |] x6 |] %33
w: |||||||
w: peace I shall|dwell;|All,|all will be|well.|||
w: |||||||
w: |||||||
V:2
 x6 | x6 | x6 | x6 | x6 | x6 | x6 | x6 | x6 | x6 | x6 | x6 | x6 | x6 | x2 (GD) x2 | x6 || x6 | x6 | %18
 x2 G2 x2 | x6 | x6 | x6 | x6 | x6 | x6 | x6 | x2 G2 x2 | x6 | x6 | x6 | x6 | x6 |] x6 |] %33
V:3
 [G,,G,]6 | [G,,G,]4 [G,,G,]2 | G,2 C2 [C,G,]2 | (G,D,^C,E, D,2) | F,2 ^E,2 F,2 | [D,A,]4 [D,G,]2 | %6
 G,2 D,2 E,F, | G,D, ^C, x3 | (E, D,2) x3 | [G,,G,]6 | G,2 [E,G,]2 [C,A,]2 | %11
 [B,,_A,]2 [D,G,]2 [G,B,]2 | C6 | [C,G,]2 [D,G,]2 [D,F,]2 | [G,,G,]2 [G,,G,]3 [G,,G,] | %15
 [C,E,]2 [D,G,]2 [D,F,]2 || G,6 | [D,C]2 [D,C]2 [D,D]2 | [D,E]2 [D,D]2 [D,C]2 | %19
 [G,B,]2 [G,B,]2 (E_E) | [G,D]6 | [D,C]2 [D,B,]2 [D,C]2 | [D,F]4 [D,E]2 | [G,E]2 [G,D]2 [G,^C]2 | %24
 [G,D]6 | [D,C]2 [D,C]2 [D,D]2 | [D,E]2 [D,D]2 [D,C]2 | [G,B,]2 [G,B,]2 (E_E) | [G,D]6 | [D,D]6 | %30
 [D,E]3 [D,D] [F,C]2 | [G,B,]6- |] [G,B,]4 z2 |] %33
V:4
 x6 | x6 | C,4 x2 | G,,6 | D,6 | x6 | G,,6 | G,,6 | x6 | x6 | (G,,B,,) x4 | x6 | (C,E, G,2 C2) | %13
 x6 | x6 | x6 || (G,,2 D,2 G,2) | x6 | x6 | x4 G,2 | x6 | x6 | x6 | x6 | x6 | x6 | x6 | x4 G,2 | %28
 x6 | x6 | x6 | x6 |] x6 |] %33

